**kern
*staff1
!!pagebreak:original
*I"P1
*clefG2
*k[b-e-]
*M3/4
8ee-\L
8gg\
8ccc\J
=1
2bb-\
4eeen\
=2
4ccc\
4ff\
4bb-\
=3
4.dd\
8gg\
4ccc\
=4
[2.fff\
=5
2fff\]
4ggg\
=6
4.ddd\
8ccc#\
4ddd\
=7
4aa\
4ff#\
4ccc\
=8
2.ee-\
=9
2.gg-\
=10
4cc\
2b-\
*-
